packages/kaspersky-hexa-ui-icons/src/iconsSVGs/16/ThreatMalwareBug.svg

<svg width="16" height="16" viewBox="0 0 16 16" fill="none" xmlns="http://www.w3.org/2000/svg">
<path fill-rule="evenodd" clip-rule="evenodd" d="M8.00039 1.05005C6.58771 1.05005 5.43436 2.1604 5.36547 3.55599C4.42341 3.74942 3.67859 4.4836 3.46964 5.4199C3.04555 5.32465 2.72871 4.94582 2.72871 4.49298V2.94803C2.72871 2.58905 2.4377 2.29803 2.07871 2.29803C1.71973 2.29803 1.42871 2.58905 1.42871 2.94803V4.49298C1.42871 5.64497 2.29446 6.59476 3.41083 6.7272V7.98459H2.64048C2.28149 7.98459 1.99048 8.2756 1.99048 8.63459C1.99048 8.99357 2.28149 9.28459 2.64048 9.28459H3.41083V10.1131C3.41083 10.2833 3.42248 10.4508 3.44502 10.6148C2.6707 10.8843 2.11502 11.6207 2.11502 12.4869V14.3001C2.11502 14.659 2.40604 14.9501 2.76502 14.9501C3.12401 14.9501 3.41502 14.659 3.41502 14.3001V12.4869C3.41502 12.1973 3.59561 11.9498 3.85032 11.851C4.46809 12.9899 5.67416 13.7631 7.06083 13.7631H7.99613L8.00034 13.7632L8.00455 13.7631H8.93993C10.328 13.7631 11.535 12.9884 12.1523 11.8477C12.4055 11.9428 12.5856 12.1872 12.5856 12.4737V14.3001C12.5856 14.659 12.8766 14.9501 13.2356 14.9501C13.5946 14.9501 13.8856 14.659 13.8856 14.3001V12.4737C13.8856 11.6102 13.3297 10.8766 12.5562 10.6112C12.5784 10.4484 12.5899 10.2821 12.5899 10.1131V9.28459H13.2356C13.5946 9.28459 13.8856 8.99357 13.8856 8.63459C13.8856 8.2756 13.5946 7.98459 13.2356 7.98459H12.5899V6.72715C13.7061 6.59451 14.5716 5.64482 14.5716 4.49298V2.94803C14.5716 2.58905 14.2806 2.29803 13.9216 2.29803C13.5626 2.29803 13.2716 2.58905 13.2716 2.94803V4.49298C13.2716 4.94567 12.955 5.3244 12.5311 5.4198C12.3221 4.48356 11.5773 3.74943 10.6353 3.556C10.5664 2.16041 9.41308 1.05005 8.00039 1.05005ZM8.00039 2.35005C7.32318 2.35005 6.76347 2.85309 6.67453 3.50589H9.32625C9.23731 2.85309 8.6776 2.35005 8.00039 2.35005ZM8.65034 12.4631H8.93993C10.2378 12.4631 11.2899 11.411 11.2899 10.1131V5.95589C11.2899 5.32076 10.7751 4.80589 10.1399 4.80589H8.65034V12.4631ZM7.35034 4.80589H5.86083C5.2257 4.80589 4.71083 5.32076 4.71083 5.95589V10.1131C4.71083 11.411 5.76296 12.4631 7.06083 12.4631H7.35034V4.80589Z" fill="black"/>
</svg>

<svg xmlns="http://www.w3.org/2000/svg" width="16" height="16" fill="none" viewBox="0 0 16 16"><path fill="#000" fill-rule="evenodd" d="M8.0004 1.05c-1.4127 0-2.566 1.1104-2.635 2.506-.942.1934-1.6868.9276-1.8958 1.8639-.424-.0953-.7409-.474-.7409-.927V2.948a.65.65 0 0 0-1.3 0v1.545c0 1.152.8658 2.1018 1.9821 2.2342v1.2574h-.7703a.65.65 0 1 0 0 1.3h.7703v.8285c0 .1702.0117.3377.0342.5017-.7743.2695-1.33 1.0059-1.33 1.8721v1.8132a.65.65 0 0 0 1.3 0v-1.8132a.682.682 0 0 1 .4353-.6359c.6178 1.1389 1.8239 1.9121 3.2105 1.9121h.9353l.0042.0001.0043-.0001h.9353c1.3881 0 2.5951-.7747 3.2124-1.9154a.669.669 0 0 1 .4333.626v1.8264a.65.65 0 0 0 1.3 0v-1.8264c0-.8635-.5559-1.5971-1.3294-1.8625a3.7 3.7 0 0 0 .0337-.4981v-.8285h.6457a.65.65 0 1 0 0-1.3h-.6457V6.727c1.1162-.1326 1.9817-1.0823 1.9817-2.2341V2.948a.65.65 0 1 0-1.3 0v1.545c0 .4527-.3166.8314-.7405.9268-.209-.9362-.9538-1.6704-1.8958-1.8638-.0689-1.3956-1.2222-2.506-2.635-2.506m0 1.3c-.6772 0-1.237.503-1.3259 1.1559h2.6518C9.2373 2.853 8.6776 2.35 8.0003 2.35m.65 10.1131h.2895c1.2979 0 2.35-1.0521 2.35-2.35V5.9559c0-.6351-.5148-1.15-1.15-1.15H8.6503zm-1.3-7.6572H5.8607c-.6351 0-1.15.5149-1.15 1.15v4.1572c0 1.2979 1.0522 2.35 2.35 2.35h.2895z"/></svg>
